X: 26
T:Johnny's Down the River
% Nottingham Music Database
S:Lloyd Dolman, via EF
M:4/4
L:1/4
K:A
e|"A"cc e3/2c/2|"E7"de3|"A"cc e3/2c/2|"E7""G"B4|"A"cc e3/2c/2|"D"dd f2|\
"A"ec "E7"dB|"A"A3:||:
e2/3f2/3g2/3|"A"a2 e3/2e/2|"D"f/2e/2d "A"e2|"D"f/2e/2d "A"c/2d/2e|\
"B7"f/2g/2a "E7"g/2f/2g|
"A"a2 e3/2e/2|"D"f/2e/2d "A"e2|"D"f/2e/2d "A"c/2d/2e|"E7"fg "A"a:|


